bernoullicharts/arctan_x_two-coin_special_case__bound.svg

<?xml version="1.0" encoding="utf-8" standalone="no"?>
<!DOCTYPE svg PUBLIC "-//W3C//DTD SVG 1.1//EN"
  "http://www.w3.org/Graphics/SVG/1.1/DTD/svg11.dtd">
<!-- Created with matplotlib (https://matplotlib.org/) -->
<svg height="345.6pt" version="1.1" viewBox="0 0 460.8 345.6" width="460.8pt" xmlns="http://www.w3.org/2000/svg" xmlns:xlink="http://www.w3.org/1999/xlink">
 <defs>
  <style type="text/css">
*{stroke-linecap:butt;stroke-linejoin:round;}
  </style>
 </defs>
 <g id="figure_1">
  <g id="patch_1">
   <path d="M 0 345.6 
L 460.8 345.6 
L 460.8 0 
L 0 0 
z
" style="fill:#ffffff;"/>
  </g>
  <g id="axes_1">
   <g id="patch_2">
    <path d="M 57.6 307.584 
L 414.72 307.584 
L 414.72 41.472 
L 57.6 41.472 
z
" style="fill:#ffffff;"/>
   </g>
   <g id="matplotlib.axis_1">
    <g id="xtick_1">
     <g id="line2d_1">
      <defs>
       <path d="M 0 0 
L 0 3.5 
" id="mc0c9c3da2d" style="stroke:#000000;stroke-width:0.8;"/>
      </defs>
      <g>
       <use style="stroke:#000000;stroke-width:0.8;" x="73.800255" xlink:href="#mc0c9c3da2d" y="307.584"/>
      </g>
     </g>
     <g id="text_1">
      <text style="font-family:DejaVu Sans;font-size:10px;font-style:normal;font-weight:normal;text-anchor:middle;" transform="rotate(-0, 73.800255, 322.182437)" x="73.800255" y="322.182437">0.0</text>
     </g>
    </g>
    <g id="xtick_2">
     <g id="line2d_2">
      <g>
       <use style="stroke:#000000;stroke-width:0.8;" x="138.744153" xlink:href="#mc0c9c3da2d" y="307.584"/>
      </g>
     </g>
     <g id="text_2">
      <text style="font-family:DejaVu Sans;font-size:10px;font-style:normal;font-weight:normal;text-anchor:middle;" transform="rotate(-0, 138.744153, 322.182437)" x="138.744153" y="322.182437">0.2</text>
     </g>
    </g>
    <g id="xtick_3">
     <g id="line2d_3">
      <g>
       <use style="stroke:#000000;stroke-width:0.8;" x="203.688051" xlink:href="#mc0c9c3da2d" y="307.584"/>
      </g>
     </g>
     <g id="text_3">
      <text style="font-family:DejaVu Sans;font-size:10px;font-style:normal;font-weight:normal;text-anchor:middle;" transform="rotate(-0, 203.688051, 322.182437)" x="203.688051" y="322.182437">0.4</text>
     </g>
    </g>
    <g id="xtick_4">
     <g id="line2d_4">
      <g>
       <use style="stroke:#000000;stroke-width:0.8;" x="268.631949" xlink:href="#mc0c9c3da2d" y="307.584"/>
      </g>
     </g>
     <g id="text_4">
      <text style="font-family:DejaVu Sans;font-size:10px;font-style:normal;font-weight:normal;text-anchor:middle;" transform="rotate(-0, 268.631949, 322.182437)" x="268.631949" y="322.182437">0.6</text>
     </g>
    </g>
    <g id="xtick_5">
     <g id="line2d_5">
      <g>
       <use style="stroke:#000000;stroke-width:0.8;" x="333.575847" xlink:href="#mc0c9c3da2d" y="307.584"/>
      </g>
     </g>
     <g id="text_5">
      <text style="font-family:DejaVu Sans;font-size:10px;font-style:normal;font-weight:normal;text-anchor:middle;" transform="rotate(-0, 333.575847, 322.182437)" x="333.575847" y="322.182437">0.8</text>
     </g>
    </g>
    <g id="xtick_6">
     <g id="line2d_6">
      <g>
       <use style="stroke:#000000;stroke-width:0.8;" x="398.519745" xlink:href="#mc0c9c3da2d" y="307.584"/>
      </g>
     </g>
     <g id="text_6">
      <text style="font-family:DejaVu Sans;font-size:10px;font-style:normal;font-weight:normal;text-anchor:middle;" transform="rotate(-0, 398.519745, 322.182437)" x="398.519745" y="322.182437">1.0</text>
     </g>
    </g>
    <g id="text_7">
     <text style="font-family:DejaVu Sans;font-size:10px;font-style:normal;font-weight:normal;text-anchor:middle;" transform="rotate(-0, 236.16, 335.860562)" x="236.16" y="335.860562">Input Coin's Heads Probability (λ)</text>
    </g>
   </g>
   <g id="matplotlib.axis_2">
    <g id="ytick_1">
     <g id="line2d_7">
      <defs>
       <path d="M 0 0 
L -3.5 0 
" id="m1f863737a0" style="stroke:#000000;stroke-width:0.8;"/>
      </defs>
      <g>
       <use style="stroke:#000000;stroke-width:0.8;" x="57.6" xlink:href="#m1f863737a0" y="295.512816"/>
      </g>
     </g>
     <g id="text_8">
      <text style="font-family:DejaVu Sans;font-size:10px;font-style:normal;font-weight:normal;text-anchor:end;" transform="rotate(-0, 50.6, 299.312035)" x="50.6" y="299.312035">0.0</text>
     </g>
    </g>
    <g id="ytick_2">
     <g id="line2d_8">
      <g>
       <use style="stroke:#000000;stroke-width:0.8;" x="57.6" xlink:href="#m1f863737a0" y="262.048803"/>
      </g>
     </g>
     <g id="text_9">
      <text style="font-family:DejaVu Sans;font-size:10px;font-style:normal;font-weight:normal;text-anchor:end;" transform="rotate(-0, 50.6, 265.848022)" x="50.6" y="265.848022">0.2</text>
     </g>
    </g>
    <g id="ytick_3">
     <g id="line2d_9">
      <g>
       <use style="stroke:#000000;stroke-width:0.8;" x="57.6" xlink:href="#m1f863737a0" y="228.58479"/>
      </g>
     </g>
     <g id="text_10">
      <text style="font-family:DejaVu Sans;font-size:10px;font-style:normal;font-weight:normal;text-anchor:end;" transform="rotate(-0, 50.6, 232.384008)" x="50.6" y="232.384008">0.4</text>
     </g>
    </g>
    <g id="ytick_4">
     <g id="line2d_10">
      <g>
       <use style="stroke:#000000;stroke-width:0.8;" x="57.6" xlink:href="#m1f863737a0" y="195.120776"/>
      </g>
     </g>
     <g id="text_11">
      <text style="font-family:DejaVu Sans;font-size:10px;font-style:normal;font-weight:normal;text-anchor:end;" transform="rotate(-0, 50.6, 198.919995)" x="50.6" y="198.919995">0.6</text>
     </g>
    </g>
    <g id="ytick_5">
     <g id="line2d_11">
      <g>
       <use style="stroke:#000000;stroke-width:0.8;" x="57.6" xlink:href="#m1f863737a0" y="161.656763"/>
      </g>
     </g>
     <g id="text_12">
      <text style="font-family:DejaVu Sans;font-size:10px;font-style:normal;font-weight:normal;text-anchor:end;" transform="rotate(-0, 50.6, 165.455982)" x="50.6" y="165.455982">0.8</text>
     </g>
    </g>
    <g id="ytick_6">
     <g id="line2d_12">
      <g>
       <use style="stroke:#000000;stroke-width:0.8;" x="57.6" xlink:href="#m1f863737a0" y="128.19275"/>
      </g>
     </g>
     <g id="text_13">
      <text style="font-family:DejaVu Sans;font-size:10px;font-style:normal;font-weight:normal;text-anchor:end;" transform="rotate(-0, 50.6, 131.991968)" x="50.6" y="131.991968">1.0</text>
     </g>
    </g>
    <g id="ytick_7">
     <g id="line2d_13">
      <g>
       <use style="stroke:#000000;stroke-width:0.8;" x="57.6" xlink:href="#m1f863737a0" y="94.728736"/>
      </g>
     </g>
     <g id="text_14">
      <text style="font-family:DejaVu Sans;font-size:10px;font-style:normal;font-weight:normal;text-anchor:end;" transform="rotate(-0, 50.6, 98.527955)" x="50.6" y="98.527955">1.2</text>
     </g>
    </g>
    <g id="ytick_8">
     <g id="line2d_14">
      <g>
       <use style="stroke:#000000;stroke-width:0.8;" x="57.6" xlink:href="#m1f863737a0" y="61.264723"/>
      </g>
     </g>
     <g id="text_15">
      <text style="font-family:DejaVu Sans;font-size:10px;font-style:normal;font-weight:normal;text-anchor:end;" transform="rotate(-0, 50.6, 65.063942)" x="50.6" y="65.063942">1.4</text>
     </g>
    </g>
    <g id="text_16">
     <text style="font-family:DejaVu Sans;font-size:10px;font-style:normal;font-weight:normal;text-anchor:middle;" transform="rotate(-90, 28.617187, 174.528)" x="28.617187" y="174.528">Coin Flips Needed</text>
    </g>
   </g>
   <g id="line2d_15">
    <path clip-path="url(#p35c2cf17b9)" d="M 73.832727 128.192754 
L 77.112066 128.221814 
L 80.391405 128.308058 
L 83.670744 128.451709 
L 86.950083 128.652909 
L 90.229421 128.911719 
L 93.50876 129.228119 
L 96.788099 129.602009 
L 100.067438 130.033208 
L 103.346777 130.521458 
L 106.626116 131.066421 
L 109.905455 131.667684 
L 113.184793 132.324761 
L 116.464132 133.037092 
L 119.743471 133.804048 
L 123.02281 134.624932 
L 126.302149 135.498983 
L 129.581488 136.425379 
L 132.860826 137.403236 
L 136.140165 138.431619 
L 139.419504 139.509538 
L 142.698843 140.635955 
L 145.978182 141.809787 
L 149.257521 143.02991 
L 152.53686 144.295162 
L 155.816198 145.604348 
L 159.095537 146.956241 
L 162.374876 148.349591 
L 165.654215 149.783122 
L 168.933554 151.255542 
L 172.212893 152.765543 
L 175.492231 154.311806 
L 178.77157 155.893006 
L 182.050909 157.507811 
L 185.330248 159.154891 
L 188.609587 160.832918 
L 191.888926 162.54057 
L 195.168264 164.276535 
L 198.447603 166.039512 
L 201.726942 167.828217 
L 205.006281 169.641383 
L 208.28562 171.477764 
L 211.564959 173.336136 
L 214.844298 175.215302 
L 218.123636 177.114092 
L 221.402975 179.031365 
L 224.682314 180.966014 
L 227.961653 182.916962 
L 231.240992 184.883172 
L 234.520331 186.863639 
L 237.799669 188.8574 
L 241.079008 190.863528 
L 244.358347 192.88114 
L 247.637686 194.909392 
L 250.917025 196.947485 
L 254.196364 198.994663 
L 257.475702 201.050214 
L 260.755041 203.11347 
L 264.03438 205.183813 
L 267.313719 207.260666 
L 270.593058 209.343504 
L 273.872397 211.431847 
L 277.151736 213.525263 
L 280.431074 215.623369 
L 283.710413 217.72583 
L 286.989752 219.832362 
L 290.269091 221.94273 
L 293.54843 224.056747 
L 296.827769 226.17428 
L 300.107107 228.295244 
L 303.386446 230.419607 
L 306.665785 232.54739 
L 309.945124 234.678666 
L 313.224463 236.813559 
L 316.503802 238.952252 
L 319.78314 241.094979 
L 323.062479 243.242032 
L 326.341818 245.393762 
L 329.621157 247.550576 
L 332.900496 249.712941 
L 336.179835 251.881389 
L 339.459174 254.056513 
L 342.738512 256.238973 
L 346.017851 258.429496 
L 349.29719 260.628881 
L 352.576529 262.838 
L 355.855868 265.057803 
L 359.135207 267.289318 
L 362.414545 269.533661 
L 365.693884 271.792036 
L 368.973223 274.065739 
L 372.252562 276.356169 
L 375.531901 278.664829 
L 378.81124 280.993335 
L 382.090579 283.343425 
L 385.369917 285.716963 
L 388.649256 288.115955 
L 391.928595 290.542553 
L 395.207934 292.999072 
L 398.487273 295.488 
" style="fill:none;stroke:#1f77b4;stroke-linecap:square;stroke-width:1.5;"/>
   </g>
   <g id="line2d_16">
    <path clip-path="url(#p35c2cf17b9)" d="M 73.832727 71.303927 
L 77.112066 70.969287 
L 80.391405 65.615045 
L 83.670744 68.626806 
L 86.950083 70.634647 
L 90.229421 68.292166 
L 93.50876 59.256882 
L 96.788099 75.654249 
L 100.067438 74.984969 
L 103.346777 65.949685 
L 106.626116 59.591522 
L 109.905455 70.969287 
L 113.184793 76.658169 
L 116.464132 69.296086 
L 119.743471 64.611124 
L 123.02281 63.607204 
L 126.302149 73.981048 
L 129.581488 58.922242 
L 132.860826 60.930083 
L 136.140165 60.260803 
L 139.419504 56.914401 
L 142.698843 68.626806 
L 145.978182 74.315688 
L 149.257521 71.638567 
L 152.53686 53.568 
L 155.816198 65.615045 
L 159.095537 60.930083 
L 162.374876 69.296086 
L 165.654215 66.284325 
L 168.933554 57.249041 
L 172.212893 59.591522 
L 175.492231 63.607204 
L 178.77157 69.965367 
L 182.050909 65.615045 
L 185.330248 73.646408 
L 188.609587 63.272564 
L 191.888926 61.264723 
L 195.168264 58.252962 
L 198.447603 63.272564 
L 201.726942 80.673851 
L 205.006281 67.288245 
L 208.28562 64.276484 
L 211.564959 66.284325 
L 214.844298 68.961446 
L 218.123636 64.276484 
L 221.402975 62.268643 
L 224.682314 70.969287 
L 227.961653 76.992809 
L 231.240992 86.028093 
L 234.520331 63.272564 
L 237.799669 68.292166 
L 241.079008 76.658169 
L 244.358347 74.984969 
L 247.637686 62.937924 
L 250.917025 63.941844 
L 254.196364 73.981048 
L 257.475702 70.300007 
L 260.755041 71.973207 
L 264.03438 81.677771 
L 267.313719 70.300007 
L 270.593058 80.673851 
L 273.872397 74.315688 
L 277.151736 75.654249 
L 280.431074 74.984969 
L 283.710413 74.315688 
L 286.989752 83.016332 
L 290.269091 67.622886 
L 293.54843 78.33137 
L 296.827769 73.311768 
L 300.107107 74.650328 
L 303.386446 75.319609 
L 306.665785 81.343131 
L 309.945124 84.354892 
L 313.224463 69.965367 
L 316.503802 74.650328 
L 319.78314 75.654249 
L 323.062479 79.00065 
L 326.341818 82.681692 
L 329.621157 74.650328 
L 332.900496 84.020252 
L 336.179835 81.008491 
L 339.459174 78.66601 
L 342.738512 83.685612 
L 346.017851 84.354892 
L 349.29719 81.343131 
L 352.576529 83.350972 
L 355.855868 85.693453 
L 359.135207 95.398017 
L 362.414545 93.055536 
L 365.693884 86.697373 
L 368.973223 94.728736 
L 372.252562 90.378415 
L 375.531901 85.024173 
L 378.81124 88.035934 
L 382.090579 91.047695 
L 385.369917 85.358813 
L 388.649256 86.028093 
L 391.928595 94.059456 
L 395.207934 88.035934 
L 398.487273 89.374494 
" style="fill:none;stroke:#ff7f0e;stroke-linecap:square;stroke-width:1.5;"/>
   </g>
   <g id="patch_3">
    <path d="M 57.6 307.584 
L 57.6 41.472 
" style="fill:none;stroke:#000000;stroke-linecap:square;stroke-linejoin:miter;stroke-width:0.8;"/>
   </g>
   <g id="patch_4">
    <path d="M 414.72 307.584 
L 414.72 41.472 
" style="fill:none;stroke:#000000;stroke-linecap:square;stroke-linejoin:miter;stroke-width:0.8;"/>
   </g>
   <g id="patch_5">
    <path d="M 57.6 307.584 
L 414.72 307.584 
" style="fill:none;stroke:#000000;stroke-linecap:square;stroke-linejoin:miter;stroke-width:0.8;"/>
   </g>
   <g id="patch_6">
    <path d="M 57.6 41.472 
L 414.72 41.472 
" style="fill:none;stroke:#000000;stroke-linecap:square;stroke-linejoin:miter;stroke-width:0.8;"/>
   </g>
   <g id="text_17">
    <text style="font-family:DejaVu Sans;font-size:12px;font-style:normal;font-weight:normal;text-anchor:middle;" transform="rotate(-0, 236.16, 35.472)" x="236.16" y="35.472">Coin Flips for arctan(x)</text>
   </g>
   <g id="legend_1">
    <g id="patch_7">
     <path d="M 64.6 302.584 
L 359.996875 302.584 
Q 361.996875 302.584 361.996875 300.584 
L 361.996875 272.22775 
Q 361.996875 270.22775 359.996875 270.22775 
L 64.6 270.22775 
Q 62.6 270.22775 62.6 272.22775 
L 62.6 300.584 
Q 62.6 302.584 64.6 302.584 
z
" style="fill:#ffffff;opacity:0.8;stroke:#cccccc;stroke-linejoin:miter;"/>
    </g>
    <g id="line2d_17">
     <path d="M 66.6 278.326187 
L 86.6 278.326187 
" style="fill:none;stroke:#1f77b4;stroke-linecap:square;stroke-width:1.5;"/>
    </g>
    <g id="line2d_18"/>
    <g id="text_18">
     <text style="font-family:DejaVu Sans;font-size:10px;font-style:normal;font-weight:normal;text-anchor:start;" transform="rotate(-0, 94.6, 281.826187)" x="94.6" y="281.826187">Coin Flip Lower Bound</text>
    </g>
    <g id="line2d_19">
     <path d="M 66.6 293.004312 
L 86.6 293.004312 
" style="fill:none;stroke:#ff7f0e;stroke-linecap:square;stroke-width:1.5;"/>
    </g>
    <g id="line2d_20"/>
    <g id="text_19">
     <text style="font-family:DejaVu Sans;font-size:10px;font-style:normal;font-weight:normal;text-anchor:start;" transform="rotate(-0, 94.6, 296.504312)" x="94.6" y="296.504312">Avg. Coins Flipped arctan(x) (Two-Coin Special Case)</text>
    </g>
   </g>
  </g>
 </g>
 <defs>
  <clipPath id="p35c2cf17b9">
   <rect height="266.112" width="357.12" x="57.6" y="41.472"/>
  </clipPath>
 </defs>
</svg>

<svg height="460.8" viewBox="0 0 460.8 345.6" width="614.4" xmlns="http://www.w3.org/2000/svg" xmlns:xlink="http://www.w3.org/1999/xlink"><defs><style>*{stroke-linecap:butt;stroke-linejoin:round}</style></defs><g id="figure_1"><path d="M0 345.6h460.8V0H0z" fill="#fff" id="patch_1"/><g id="axes_1"><path d="M57.6 307.584h357.12V41.472H57.6z" fill="#fff" id="patch_2"/><g id="matplotlib.axis_1"><g id="xtick_1"><g id="line2d_1"><defs><path d="M0 0v3.5" id="mc0c9c3da2d" stroke="#000" stroke-width=".8"/></defs><use x="73.8" xlink:href="#mc0c9c3da2d" y="307.584" stroke="#000" stroke-width=".8"/></g><text x="73.8" y="322.182" font-family="DejaVu Sans" font-size="10" font-weight="400" text-anchor="middle" id="text_1">0.0</text></g><g id="xtick_2"><use x="138.744" xlink:href="#mc0c9c3da2d" y="307.584" stroke="#000" stroke-width=".8" id="line2d_2"/><text x="138.744" y="322.182" font-family="DejaVu Sans" font-size="10" font-weight="400" text-anchor="middle" id="text_2">0.2</text></g><g id="xtick_3"><use x="203.688" xlink:href="#mc0c9c3da2d" y="307.584" stroke="#000" stroke-width=".8" id="line2d_3"/><text x="203.688" y="322.182" font-family="DejaVu Sans" font-size="10" font-weight="400" text-anchor="middle" id="text_3">0.4</text></g><g id="xtick_4"><use x="268.632" xlink:href="#mc0c9c3da2d" y="307.584" stroke="#000" stroke-width=".8" id="line2d_4"/><text x="268.632" y="322.182" font-family="DejaVu Sans" font-size="10" font-weight="400" text-anchor="middle" id="text_4">0.6</text></g><g id="xtick_5"><use x="333.576" xlink:href="#mc0c9c3da2d" y="307.584" stroke="#000" stroke-width=".8" id="line2d_5"/><text x="333.576" y="322.182" font-family="DejaVu Sans" font-size="10" font-weight="400" text-anchor="middle" id="text_5">0.8</text></g><g id="xtick_6"><use x="398.52" xlink:href="#mc0c9c3da2d" y="307.584" stroke="#000" stroke-width=".8" id="line2d_6"/><text x="398.52" y="322.182" font-family="DejaVu Sans" font-size="10" font-weight="400" text-anchor="middle" id="text_6">1.0</text></g><text x="236.16" y="335.861" font-family="DejaVu Sans" font-size="10" font-weight="400" text-anchor="middle" id="text_7">Input Coin&apos;s Heads Probability (λ)</text></g><g id="matplotlib.axis_2"><g id="ytick_1"><g id="line2d_7"><defs><path d="M0 0h-3.5" id="m1f863737a0" stroke="#000" stroke-width=".8"/></defs><use x="57.6" xlink:href="#m1f863737a0" y="295.513" stroke="#000" stroke-width=".8"/></g><text x="50.6" y="299.312" font-family="DejaVu Sans" font-size="10" font-weight="400" text-anchor="end" id="text_8">0.0</text></g><g id="ytick_2"><use x="57.6" xlink:href="#m1f863737a0" y="262.049" stroke="#000" stroke-width=".8" id="line2d_8"/><text x="50.6" y="265.848" font-family="DejaVu Sans" font-size="10" font-weight="400" text-anchor="end" id="text_9">0.2</text></g><g id="ytick_3"><use x="57.6" xlink:href="#m1f863737a0" y="228.585" stroke="#000" stroke-width=".8" id="line2d_9"/><text x="50.6" y="232.384" font-family="DejaVu Sans" font-size="10" font-weight="400" text-anchor="end" id="text_10">0.4</text></g><g id="ytick_4"><use x="57.6" xlink:href="#m1f863737a0" y="195.121" stroke="#000" stroke-width=".8" id="line2d_10"/><text x="50.6" y="198.92" font-family="DejaVu Sans" font-size="10" font-weight="400" text-anchor="end" id="text_11">0.6</text></g><g id="ytick_5"><use x="57.6" xlink:href="#m1f863737a0" y="161.657" stroke="#000" stroke-width=".8" id="line2d_11"/><text x="50.6" y="165.456" font-family="DejaVu Sans" font-size="10" font-weight="400" text-anchor="end" id="text_12">0.8</text></g><g id="ytick_6"><use x="57.6" xlink:href="#m1f863737a0" y="128.193" stroke="#000" stroke-width=".8" id="line2d_12"/><text x="50.6" y="131.992" font-family="DejaVu Sans" font-size="10" font-weight="400" text-anchor="end" id="text_13">1.0</text></g><g id="ytick_7"><use x="57.6" xlink:href="#m1f863737a0" y="94.729" stroke="#000" stroke-width=".8" id="line2d_13"/><text x="50.6" y="98.528" font-family="DejaVu Sans" font-size="10" font-weight="400" text-anchor="end" id="text_14">1.2</text></g><g id="ytick_8"><use x="57.6" xlink:href="#m1f863737a0" y="61.265" stroke="#000" stroke-width=".8" id="line2d_14"/><text x="50.6" y="65.064" font-family="DejaVu Sans" font-size="10" font-weight="400" text-anchor="end" id="text_15">1.4</text></g><text transform="rotate(-90 28.617 174.528)" x="28.617" y="174.528" font-family="DejaVu Sans" font-size="10" font-weight="400" text-anchor="middle" id="text_16">Coin Flips Needed</text></g><path clip-path="url(#p35c2cf17b9)" d="M73.833 128.193l3.28.029 3.278.086 3.28.144 3.28.2 3.278.26 3.28.316 3.28.374 3.278.431 3.28.488 3.28.545 3.278.602 3.28.657 3.28.712 3.278.767 3.28.82 3.28.875 3.278.926 3.28.978 3.28 1.029 3.279 1.078 3.279 1.126 3.28 1.174 3.279 1.22 3.279 1.265 3.28 1.31 3.279 1.351 3.279 1.394 3.28 1.433 3.279 1.473 3.279 1.51 3.28 1.546 3.279 1.581 3.279 1.615 3.28 1.647 3.279 1.678 3.279 1.708 3.28 1.736 3.279 1.763 3.279 1.788 3.28 1.813 3.279 1.837 3.279 1.858 3.28 1.88 3.279 1.898 3.279 1.917 3.28 1.935 3.279 1.951 3.279 1.966 3.28 1.98 3.279 1.994 3.279 2.007 3.28 2.017 3.279 2.028 3.279 2.038 3.28 2.048 3.279 2.055 3.279 2.063 3.28 2.07 3.279 2.078 3.28 2.083 3.278 2.088 3.28 2.093 3.28 2.098 3.278 2.103 3.28 2.106 3.28 2.11 3.278 2.115 3.28 2.117 3.28 2.121 3.278 2.125 3.28 2.127 3.28 2.132 3.278 2.135 3.28 2.138 3.28 2.143 3.278 2.147 3.28 2.152 3.28 2.157 3.278 2.162 3.28 2.168 3.28 2.176 3.279 2.182 3.279 2.19 3.28 2.2 3.279 2.209 3.279 2.22 3.28 2.231 3.279 2.245 3.279 2.258 3.28 2.274 3.279 2.29 3.279 2.309 3.28 2.328 3.279 2.35 3.279 2.374 3.28 2.399 3.279 2.427 3.279 2.456 3.28 2.489" fill="none" stroke="#1f77b4" stroke-linecap="square" stroke-width="1.5" id="line2d_15"/><path clip-path="url(#p35c2cf17b9)" d="M73.833 71.304l3.28-.335 3.278-5.354 3.28 3.012 3.28 2.008 3.278-2.343 3.28-9.035 3.28 16.397 3.278-.669 3.28-9.035 3.28-6.358 3.278 11.377 3.28 5.69 3.28-7.363 3.278-4.685 3.28-1.004 3.28 10.374 3.278-15.059 3.28 2.008 3.28-.67 3.279-3.346 3.279 11.713 3.28 5.689 3.279-2.677 3.279-18.071 3.28 12.047 3.279-4.685 3.279 8.366 3.28-3.012 3.279-9.035 3.279 2.343 3.28 4.015 3.279 6.358 3.279-4.35 3.28 8.031 3.279-10.373 3.279-2.008 3.28-3.012 3.279 5.02 3.279 17.4 3.28-13.385 3.279-3.012 3.279 2.008 3.28 2.677 3.279-4.685 3.279-2.007 3.28 8.7 3.279 6.024 3.279 9.035 3.28-22.755 3.279 5.02 3.279 8.365 3.28-1.673 3.279-12.047 3.279 1.004 3.28 10.039 3.279-3.681 3.279 1.673 3.28 9.705 3.279-11.378 3.28 10.374 3.278-6.358 3.28 1.338 3.28-.669 3.278-.67 3.28 8.701 3.28-15.393 3.278 10.708 3.28-5.02 3.28 1.34 3.278.669 3.28 6.023 3.28 3.012 3.278-14.39 3.28 4.685 3.28 1.004 3.278 3.347 3.28 3.68 3.28-8.03 3.278 9.37 3.28-3.013 3.28-2.342 3.279 5.02 3.279.669 3.28-3.012 3.279 2.008 3.279 2.342 3.28 9.705 3.279-2.342 3.279-6.359 3.28 8.032 3.279-4.35 3.279-5.355 3.28 3.012 3.279 3.012 3.279-5.69 3.28.67 3.279 8.031 3.279-6.023 3.28 1.338" fill="none" stroke="#ff7f0e" stroke-linecap="square" stroke-width="1.5" id="line2d_16"/><path d="M57.6 307.584V41.472" fill="none" stroke="#000" stroke-linecap="square" stroke-width=".8" id="patch_3"/><path d="M414.72 307.584V41.472" fill="none" stroke="#000" stroke-linecap="square" stroke-width=".8" id="patch_4"/><path d="M57.6 307.584h357.12" fill="none" stroke="#000" stroke-linecap="square" stroke-width=".8" id="patch_5"/><path d="M57.6 41.472h357.12" fill="none" stroke="#000" stroke-linecap="square" stroke-width=".8" id="patch_6"/><text x="236.16" y="35.472" font-family="DejaVu Sans" font-size="12" font-weight="400" text-anchor="middle" id="text_17">Coin Flips for arctan(x)</text><g id="legend_1"><path d="M64.6 302.584h295.397q2 0 2-2v-28.356q0-2-2-2H64.6q-2 0-2 2v28.356q0 2 2 2z" fill="#fff" opacity=".8" stroke="#ccc" id="patch_7"/><path d="M66.6 278.326h20" fill="none" stroke="#1f77b4" stroke-linecap="square" stroke-width="1.5" id="line2d_17"/><text x="94.6" y="281.826" font-family="DejaVu Sans" font-size="10" font-weight="400" id="text_18">Coin Flip Lower Bound</text><path d="M66.6 293.004h20" fill="none" stroke="#ff7f0e" stroke-linecap="square" stroke-width="1.5" id="line2d_19"/><text x="94.6" y="296.504" font-family="DejaVu Sans" font-size="10" font-weight="400" id="text_19">Avg. Coins Flipped arctan(x) (Two-Coin Special Case)</text></g></g></g><defs><clipPath id="p35c2cf17b9"><path d="M57.6 41.472h357.12v266.112H57.6z"/></clipPath></defs></svg>
